X:1
T:Craig's Pipes
R:reel
M:4/4
L:1/8
K:G
|~B2BB BAGA|~B2GB AGED|~B2BA BAGB|~A2BG AGED|
|~B2BB BAGA|~B2GB AGED|(3Bcd ed BcdB|AcBG AGEG|
|:DG~G2 AGBG|DGBG AGEG|DGGF GABc|1 dBAc BGGE:|2 dBAc BGGB|]
|:~d2Bd efge|~d2BG AGEG|~d2Bd eg~g2|1 ~a2bg ageg:|2 ~a2bg aged|]